images/vergrootglas.svg

<svg height="40" viewBox="0 0 40 40" width="40" xmlns="http://www.w3.org/2000/svg"><g fill="#fff" fill-rule="evenodd" transform="translate(10 10)"><path d="m8 16c4.418278 0 8-3.581722 8-8s-3.581722-8-8-8-8 3.581722-8 8 3.581722 8 8 8zm0-3c2.7614237 0 5-2.2385763 5-5 0-2.76142375-2.2385763-5-5-5-2.76142375 0-5 2.23857625-5 5 0 2.7614237 2.23857625 5 5 5z"/><path d="m15 12h4v7h-4z" transform="matrix(.70710678 -.70710678 .70710678 .70710678 -5.98097 16.56066)"/></g></svg>

<?xml version="1.0" encoding="UTF-8" standalone="no"?>
<svg width="40px" height="40px" viewBox="0 0 40 40" version="1.1" xmlns="http://www.w3.org/2000/svg" xmlns:xlink="http://www.w3.org/1999/xlink" xmlns:sketch="http://www.bohemiancoding.com/sketch/ns">
    <!-- Generator: Sketch 3.2.2 (9983) - http://www.bohemiancoding.com/sketch -->
    <title>vergrootglas</title>
    <desc>Created with Sketch.</desc>
    <defs></defs>
    <g id="Page-1" stroke="none" stroke-width="1" fill="none" fill-rule="evenodd" sketch:type="MSPage">
        <g id="vergrootglas" sketch:type="MSArtboardGroup" fill="#FFFFFF">
            <g sketch:type="MSLayerGroup" transform="translate(10.000000, 10.000000)">
                <path d="M8,16 C12.418278,16 16,12.418278 16,8 C16,3.581722 12.418278,0 8,0 C3.581722,0 0,3.581722 0,8 C0,12.418278 3.581722,16 8,16 Z M8,13 C10.7614237,13 13,10.7614237 13,8 C13,5.23857625 10.7614237,3 8,3 C5.23857625,3 3,5.23857625 3,8 C3,10.7614237 5.23857625,13 8,13 Z" id="Oval-2" sketch:type="MSShapeGroup"></path>
                <rect id="Rectangle-3" sketch:type="MSShapeGroup" transform="translate(17.000000, 15.500000) rotate(-45.000000) translate(-17.000000, -15.500000) " x="15" y="12" width="4" height="7"></rect>
            </g>
        </g>
    </g>
</svg>
